img/place_contacts-item1.svg

<svg width="20" height="20" viewBox="0 0 20 20" fill="none" xmlns="http://www.w3.org/2000/svg">
<path fill-rule="evenodd" clip-rule="evenodd" d="M9.99984 18.3341C5.39984 18.3341 1.6665 14.6091 1.6665 10.0008C1.6665 5.40081 5.39984 1.66748 9.99984 1.66748C14.6082 1.66748 18.3332 5.40081 18.3332 10.0008C18.3332 14.6091 14.6082 18.3341 9.99984 18.3341ZM12.6582 13.0925C12.7582 13.1508 12.8665 13.1841 12.9832 13.1841C13.1915 13.1841 13.3998 13.0758 13.5165 12.8758C13.6915 12.5841 13.5998 12.2008 13.2998 12.0175L10.3332 10.2508V6.40081C10.3332 6.05081 10.0498 5.77581 9.70817 5.77581C9.3665 5.77581 9.08317 6.05081 9.08317 6.40081V10.6091C9.08317 10.8258 9.19984 11.0258 9.3915 11.1425L12.6582 13.0925Z" fill="#FC6733"/>
</svg>

<svg width="20" height="20" viewBox="0 0 20 20" fill="none" xmlns="http://www.w3.org/2000/svg"><path fill-rule="evenodd" clip-rule="evenodd" d="M10 18.334a8.331 8.331 0 0 1-8.333-8.333A8.336 8.336 0 0 1 10 1.667a8.331 8.331 0 0 1 8.333 8.334A8.326 8.326 0 0 1 10 18.334zm2.658-5.242a.618.618 0 0 0 .858-.217.628.628 0 0 0-.216-.857l-2.967-1.767V6.4a.624.624 0 1 0-1.25 0v4.208c0 .217.117.417.309.534l3.266 1.95z" fill="#FC6733"/></svg>
